img/arrow.svg

<svg width="28" height="28" viewBox="0 0 28 28" fill="none" xmlns="http://www.w3.org/2000/svg">
<path d="M6.07682 15.1667H19.1085L13.4152 20.86C12.9602 21.315 12.9602 22.0617 13.4152 22.5167C13.8702 22.9717 14.6052 22.9717 15.0602 22.5167L22.7485 14.8283C23.2035 14.3733 23.2035 13.6383 22.7485 13.1833L15.0718 5.48332C14.8539 5.26486 14.5579 5.14209 14.2493 5.14209C13.9407 5.14209 13.6448 5.26486 13.4268 5.48332C12.9718 5.93832 12.9718 6.67332 13.4268 7.12832L19.1085 12.8333H6.07682C5.43516 12.8333 4.91016 13.3583 4.91016 14C4.91016 14.6417 5.43516 15.1667 6.07682 15.1667Z" fill="#141414"/>
</svg>

<svg xmlns="http://www.w3.org/2000/svg" width="28" height="28" fill="none" viewBox="0 0 28 28"><path fill="#141414" d="M6.077 15.167h13.031l-5.693 5.693a1.176 1.176 0 0 0 0 1.657c.455.455 1.19.455 1.645 0l7.688-7.689a1.162 1.162 0 0 0 0-1.645l-7.676-7.7a1.162 1.162 0 0 0-1.645 0 1.162 1.162 0 0 0 0 1.645l5.681 5.705H6.077A1.17 1.17 0 0 0 4.91 14a1.17 1.17 0 0 0 1.167 1.167Z"/></svg>
